X:1
T:Title
%%score { 1 | 2 }
L:1/8
Q:1/4=92
M:6/8
K:Bb
V:1 treble nm="Grand Piano"
V:2 bass 
V:1
 [DF][DF][DF] [DF][B,D][DB] | B3 .A3 | cAG .A3 | [EG][DF][B,D] .[DF]3 | %4
w: E.~S.~Lorenz * * * * *||||
 [DF][DF][DF] [DF][B,D][DB] | B3 .A3 | cAG A2 c | [DB]6 | ccc c=Bc | e3 .c3 | %10
w: ||||||
 [Fd]2 [FB] [GB][FA][EG] | [DF]6 | ccc c=Bc | e3 .c3 | [Fd]2 [DGB] [GB][FA][=EG] | F6 | FEE EFG | %17
w: |||||||
 [EG][DF][DB] .[DF]3 | FEE EFG | [EG][DF][DB] .[DF]3 | ddd c2 c | BBB [D^FA]2 [CFA] | %22
w: |||||
 [B,G]2 [EGB] [CFA][B,DB][Ec] | [DB]6 |] %24
w: ||
V:2
 [B,,B,][B,,B,][B,,B,] [B,,B,][B,,F,][B,,F,] | [F,D]3 .[F,C]3 | [F,A,E][F,CE][F,CE] .[F,CE]3 | %3
 [B,,B,][B,,B,][B,,F,] .[B,,B,]3 | [B,,B,][B,,B,][B,,B,] [B,,B,][B,,F,][B,,F,] | [F,D]3 .[F,C]3 | %6
 [F,A,E][F,CE][F,CE] [F,CE]2 [F,A,E] | [B,,B,]6 | [F,A,F][F,A,F][F,A,F] [F,A,F][F,_A,F][F,=A,F] | %9
 [F,CF]3 .[F,A,F]3 | [B,,B,]2 [D,B,] [E,B,][E,B,][E,B,] | [B,,B,]6 | %12
 [F,A,F][F,A,F][F,A,F] [F,A,F][F,_A,F][F,=A,F] | [F,CF]3 .[F,A,F]3 | %14
 [B,,B,]2 B,, [C,C][C,C][C,B,] | [F,A,]6 | [F,A,D][F,A,C][F,A,C] [F,A,C][F,A,D][F,A,E] | %17
 [B,,B,][B,,B,][B,,B,] .[B,,B,]3 | [F,A,D][F,A,C][F,A,C] [F,A,C][F,A,D][F,A,E] | %19
 [B,,B,][B,,B,][B,,B,] .[B,,B,]3 | [B,F][B,F][B,F][K:bass] [F,A,F]2 [F,A,E] | %21
 [G,B,D][G,DG][G,DG][K:bass] D,2 D, | E,2 E, F,F,[F,A,] | [B,,B,]6 |] %24

